symbolic/64x64/apps/ktorrent.svg

<svg xmlns="http://www.w3.org/2000/svg" width="64" height="64" version="1">
 <path style="opacity:0.2" d="m 22.88626,5.0015988 c -1.199966,0 -2.733922,1.2669638 -2.885917,2.8241194 l 0,21.1753958 -11.9996578,0 L 32,53.000428 55.999315,29.001114 l -11.999658,0 0,-21.1753958 c 0,-1.5639554 -1.685951,-2.8239194 -2.885917,-2.8239194 l -18.22748,0 z M 6.8015194,55.000171 c -1.5511557,0 -2.80072,1.337962 -2.80072,2.999915 0,1.661952 1.2495643,2.999914 2.80072,2.999914 l 50.3985616,0 c 1.549955,0 2.79992,-1.337962 2.79992,-2.999914 0,-1.661953 -1.249965,-2.999915 -2.79992,-2.999915 l -50.3985616,0 z"/>
 <path style="fill:#358de7" d="m 22.88626,4.0016559 c -1.199966,0 -2.733922,1.2669638 -2.885917,2.8241194 l 0,21.1753957 -11.9996578,0 L 32,52.000485 55.999315,28.001171 l -11.999658,0 0,-21.1753957 c 0,-1.5639554 -1.685951,-2.8239194 -2.885917,-2.8239194 l -18.22748,0 z M 6.8015194,54.000228 c -1.5511557,0 -2.80072,1.337962 -2.80072,2.999915 0,1.661952 1.2495643,2.999914 2.80072,2.999914 l 50.3985616,0 c 1.549955,0 2.79992,-1.337962 2.79992,-2.999914 0,-1.661953 -1.249965,-2.999915 -2.79992,-2.999915 l -50.3985616,0 z"/>
 <path style="opacity:0.2;fill:#ffffff" d="M 22.886719 4.0019531 C 21.686753 4.0019531 20.151995 5.2690163 20 6.8261719 L 20 7.8261719 C 20.151995 6.2690163 21.686753 5.0019531 22.886719 5.0019531 L 41.113281 5.0019531 C 42.313247 5.0019531 44 6.2620165 44 7.8261719 L 44 6.8261719 C 44 5.2620165 42.313247 4.0019531 41.113281 4.0019531 L 22.886719 4.0019531 z M 8 28 L 9 29 L 20 29 L 20 28 L 8 28 z M 44 28 L 44 29 L 55 29 L 56 28 L 44 28 z M 6.8007812 54 C 5.2496254 54 4 55.338047 4 57 C 4 57.174335 4.0177363 57.343671 4.046875 57.507812 C 4.2662505 56.083331 5.4072676 55 6.8007812 55 L 32 55 L 57.199219 55 C 58.591654 55 59.733695 56.083331 59.953125 57.507812 C 59.982288 57.343671 60 57.174335 60 57 C 60 55.338047 58.749174 54 57.199219 54 L 32 54 L 6.8007812 54 z"/>
</svg>

<svg xmlns="http://www.w3.org/2000/svg" width="64" height="64" version="1"><path style="opacity:.2" d="M22.886 5.002c-1.2 0-2.734 1.267-2.886 2.824V29H8l24 24 24-24H44V7.826c0-1.564-1.686-2.824-2.886-2.824H22.886zM6.802 55C5.25 55 4 56.338 4 58s1.25 3 2.8 3h50.4C58.75 61 60 59.662 60 58s-1.25-3-2.8-3H6.802z"/><path style="fill:#358de7" d="M22.886 4.002c-1.2 0-2.734 1.267-2.886 2.824V28H8l24 24 24-24H44V6.826c0-1.564-1.686-2.824-2.886-2.824H22.886zM6.802 54C5.25 54 4 55.338 4 57s1.25 3 2.8 3h50.4C58.75 60 60 58.662 60 57s-1.25-3-2.8-3H6.802z"/><path style="opacity:.2;fill:#fff" d="M22.887 4.002c-1.2 0-2.735 1.267-2.887 2.824v1c.152-1.557 1.687-2.824 2.887-2.824h18.226c1.2 0 2.887 1.26 2.887 2.824v-1c0-1.564-1.687-2.824-2.887-2.824H22.887zM8 28l1 1h11v-1H8zm36 0v1h11l1-1H44zM6.8 54C5.25 54 4 55.338 4 57c0 .174.018.344.047.508C4.267 56.083 5.407 55 6.8 55H57.2c1.392 0 2.534 1.083 2.753 2.508.03-.164.047-.334.047-.508 0-1.662-1.25-3-2.8-3H6.8z"/></svg>
